!!!COM: Mozart, Wolfgang Amadeus
!!!OPR: Divertimento in B-flat Major
!!!OTL:
!!!OMV: 3
!!!SCT: K 137
!!!SCA: Chronologisch-thematisches Verzeichnis sämtlicher Tonwerke Wolfgang Amade Mozarts (L. von Köchel; 1862, 2/1905, 3/1937, 1947)
!!!YOR: Breitkopf & Härtel Edition
!!!EED: Frances Bennion
!!!ENC: Frances Bennion
!!!CDT: 1756/1/27/-1791/12/5/
!!!OCY: Österreich
!!!YEC: Copyright (c) 1994, 2000 Center for Computer Assisted Research in the Humanities
!!!YEM: Rights to all derivative editions reserved.
!!!YEM: Refer to licensing agreement for further details.
!!!YEN: United States of America
**kern	**kern	**kern	**kern
*k[b-e-]	*k[b-e-]	*k[b-e-]	*k[b-e-]
*B-:	*B-:	*B-:	*B-:
*clefG	*clefG	*clefF	*clefC
*M3/8	*M3/8	*M3/8	*M3/8
*tb16	*tb16	*tb16	*tb16
=1	=1	=1	=1
8ff	4.r	4.r	4.r
8b-	.	.	.
8cc	.	.	.
=2	=2	=2	=2
8dd	8b-	8f	8BB-
8cc	8a	8F	8F
8r	8r	8r	8r
=3	=3	=3	=3
8ff	4.r	4.r	4.r
8cc	.	.	.
8dd	.	.	.
=4	=4	=4	=4
8ee-	8cc	8a	8FF
8dd	8b-	8b-	8BB-
8r	8r	8r	8r
=5	=5	=5	=5
4.gg	16r	4.e-	4.E-
.	16b-	.	.
.	16a	.	.
.	16b-	.	.
.	16cc	.	.
.	16b-	.	.
=6	=6	=6	=6
8ff	16b-	8d	8D
.	16f	.	.
8ee-	16a	8c	8C
.	16f	.	.
8dd	16b-	8B-	8BB-
.	16f	.	.
=7	=7	=7	=7
8cc	16cc	8A	8AA
.	16f	.	.
8ee-	16cc	8A	8A
.	16f	.	.
8dd	16b-	8B-	8B-
.	16f	.	.
=8	=8	=8	=8
8dd	8b-	8F	16F
.	.	.	16E
8cc	8a	16f	16F
.	.	16g	16E-
8r	8r	16f	16D
.	.	16e-	16C
=9	=9	=9	=9
8ff	4.r	4d	4BB-
8b-	.	.	.
8cc	.	8r	8r
=10	=10	=10	=10
8dd	8b-	8f	8B-
8cc	8a	8F	8F
8r	8r	8r	8r
=11	=11	=11	=11
8ff	4.r	4.r	4.r
8cc	.	.	.
8dd	.	.	.
=12	=12	=12	=12
8ee-	8cc	8a	8FF
8dd	8b-	8b-	8BB-
8r	8r	8r	8r
=13	=13	=13	=13
4.gg	16r	4.e-	4.E-
.	16b-	.	.
.	16a	.	.
.	16b-	.	.
.	16cc	.	.
.	16b-	.	.
=14	=14	=14	=14
8ff	16b-	8d	8D
.	16f	.	.
8aa	16ee-	8c	8C
.	16f	.	.
8bb-	16dd	[8B-	8BB-
.	16ff	.	.
=15	=15	=15	=15
8gg	8ee-	16B-]	8E-
.	.	16g	.
16ff	16dd	8f	8F
16ee-	16cc	.	.
16dd	16b-	8f	8FF
16cc	16a	.	.
=16	=16	=16	=16
4b-	4b-	4f	8BB-
.	.	.	8B-
8r	8r	8r	8r
=17	=17	=17	=17
4.ee	16r	4.g	4.B-
.	16cc	.	.
.	16b	.	.
.	16cc	.	.
.	16dd	.	.
.	16cc	.	.
=18	=18	=18	=18
8ff	16r	8a	4.A
.	16c	.	.
8aa	16B	8cc	.
.	16c	.	.
8ff	16d	8a	.
.	16c	.	.
=19	=19	=19	=19
4.ee	16r	4.g	4.B-
.	16cc	.	.
.	16b	.	.
.	16cc	.	.
.	16dd	.	.
.	16cc	.	.
=20	=20	=20	=20
8ff	16r	8a	4.A
.	16c	.	.
8aa	16B	8cc	.
.	16c	.	.
8ff	16d	8a	.
.	16c	.	.
=21	=21	=21	=21
8bb-	8d	4.r	8r
8b-	8e	.	8G
8b-	8f	.	8F
=22	=22	=22	=22
16b-	16g	8r	4E
16dd	16b-	.	.
16cc	16a	8c	.
16b-	16g	.	.
8a	16f	8c	8F
.	16c	.	.
=23	=23	=23	=23
8g	16d	16B-	8BB-
.	16B-	16d	.
8f	8A	8c	8C
8e	8G	8B-	8C
=24	=24	=24	=24
16f	4A	4A	4FF
16e	.	.	.
16f	.	.	.
16g	.	.	.
16a	8r	8r	8r
16b-	.	.	.
=25	=25	=25	=25
16cc	4.r	4.r	4.r
16dd	.	.	.
16ee	.	.	.
16ff	.	.	.
16gg	.	.	.
16aa	.	.	.
=26	=26	=26	=26
4bb-	4ee	4g	4C#
8aa	8ff	8f	8D
=27	=27	=27	=27
8ff	8a	8r	8D
8gg	8dd	8b-	8BB-
8ee	8b-	8g	8C
=28	=28	=28	=28
8ff	8a	8f	4FF
8r	8r	8r	.
8ccc	8cc	8a	8r
=29	=29	=29	=29
4aa	4a	4f	4.F
8ff	8f	8c	.
=30	=30	=30	=30
4cc	4c	4A	4.FF
8ff	8f	8c	.
=31	=31	=31	=31
8gg	8g	8e	8C
8aa	8a	8f	8C
8bb-	8b-	8g	8C
=32	=32	=32	=32
8aa	8a	8f	4F
8r	8r	8r	.
8ccc	8cc	8a	8r
=33	=33	=33	=33
4aa	4a	4f	4.FF
8ff	8f	8c	.
=34	=34	=34	=34
4cc	4c	4A	4.F
8ff	8f	8c	.
=35	=35	=35	=35
8gg	8g	8B-	8C
8ff	8f	8A	8C
8ee	8e	8G	8C
=36	=36	=36	=36
8ff	8f	8A	4F
8r	8r	8r	.
8ccc	8cc	8a	8r
=37	=37	=37	=37
8aa	8a	8f	8FF
8aa	8a	8f	8FF
8ff	8f	8c	8FF
=38	=38	=38	=38
8cc	8c	8A	8FF
8cc	8c	8A	8FF
8ff	8f	8c	8FF
=39	=39	=39	=39
8gg	8g	8e	8CC
8aa	8a	8f	8CC
8bb-	8b-	8g	8CC
=40	=40	=40	=40
8aa	8a	8f	8FF
8r	8r	8r	8FF
8ccc	8cc	8a	8FF
=41	=41	=41	=41
8aa	8a	8f	8FF
8aa	8a	8f	8FF
8ff	8f	8c	8FF
=42	=42	=42	=42
8cc	8c	8A	8FF
8cc	8c	8A	8FF
8ff	8f	8c	8FF
=43	=43	=43	=43
8gg	8g	8B-	8CC
8ff	8f	8A	8CC
8ee	8e	8G	8CC
=44	=44	=44	=44
4ff 4a 4f	4ff 4cc 4f	4F	4FF
8r	8r	8r	8r
=45	=45	=45	=45
16ff	4.r	4.r	4.r
16gg	.	.	.
16ff	.	.	.
16ee-	.	.	.
16dd	.	.	.
16cc	.	.	.
=46	=46	=46	=46
16dd	4.r	4.r	4.r
16ff	.	.	.
16ee-	.	.	.
16dd	.	.	.
16cc	.	.	.
16b-	.	.	.
=47	=47	=47	=47
4.a	16f	4.r	4.r
.	16g	.	.
.	16f	.	.
.	16e-	.	.
.	16d	.	.
.	16c	.	.
=48	=48	=48	=48
4.b-	16d	4.r	4.r
.	16f	.	.
.	16e-	.	.
.	16d	.	.
.	16c	.	.
.	16B-	.	.
=49	=49	=49	=49
4.cc	4.A	4.F	16F
.	.	.	16G
.	.	.	16F
.	.	.	16E-
.	.	.	16D
.	.	.	16C
=50	=50	=50	=50
4ff	4B-	4F	16D
.	.	.	16F
.	.	.	16E-
.	.	.	16D
8ddd	8ff	8r	16C
.	.	.	16BB-
=51	=51	=51	=51
8ccc	8ee-	8r	8AA
8ee-	8cc	8f	8A
8dd	8b-	8f	8B-
=52	=52	=52	=52
4aa 4cc 4d	4ff# 4a 4d	4a 4d	4D
8r	8r	8r	8r
=53	=53	=53	=53
8gg	8r	4.r	4.G
8dd	8g	.	.
8dd	8b-	.	.
=54	=54	=54	=54
[4.dd	16a	16c	4.F#
.	16b-	16B-	.
.	16cc	16A	.
.	16b-	16B-	.
.	16cc	8A	.
.	16a	.	.
=55	=55	=55	=55
16dd]	8b-	4.G	4.G
16gg	.	.	.
8dd	8g	.	.
8dd	8b-	.	.
=56	=56	=56	=56
[4.dd	16a	16c	4.F#
.	16b-	16B-	.
.	16cc	16A	.
.	16b-	16B-	.
.	16cc	8A	.
.	16a	.	.
=57	=57	=57	=57
8dd]	8b-	8G	8G
8gg	8B-	8G	8GG
8ff#	8c	8A	8AA
=58	=58	=58	=58
8ff	8d	4G	8BB
8ee-	8e-	.	8C
8dd	8f#	8d	8D
=59	=59	=59	=59
8cc#	8g	8e	8E
8cc	8a	8d	8F#
8b-	8d	8d	8G
=60	=60	=60	=60
8a	8e-	8c	8C
8g	8d	8B-	8D
8f#	8c	8A	8DD
=61	=61	=61	=61
8g	4B-	4e- 4G	4EE-
16gg	.	.	.
16ff#	.	.	.
8gg	8r	8r	8r
=62	=62	=62	=62
8r	4dd	4g	4BB-
16gg	.	.	.
16ff#	.	.	.
8gg	8r	8r	8r
=63	=63	=63	=63
8ee-	8cc	4g	8C
8dd	8b-	.	8D
8f#	8c	8A	8DD
=64	=64	=64	=64
4g	4B-	4G	4GG
8r	8r	8r	8r
=65	=65	=65	=65
8ff	4.r	4.r	4.r
8b-	.	.	.
8cc	.	.	.
=66	=66	=66	=66
8dd	8b-	8f	8BB-
8cc	8a	8F	8F
8r	8r	8r	8r
=67	=67	=67	=67
8ff	4.r	4.r	4.r
8cc	.	.	.
8dd	.	.	.
=68	=68	=68	=68
8ee-	8cc	8a	8FF
8dd	8b-	8b-	8BB-
8r	8r	8r	8r
=69	=69	=69	=69
4.gg	16r	4.e-	4.E-
.	16b-	.	.
.	16a	.	.
.	16b-	.	.
.	16cc	.	.
.	16b-	.	.
=70	=70	=70	=70
8ff	16b-	8d	8D
.	16f	.	.
8ee-	16a	8c	8C
.	16f	.	.
8dd	16b-	8B-	8BB-
.	16f	.	.
=71	=71	=71	=71
8cc	16cc	8A	8AA
.	16f	.	.
8ee-	16cc	8f	8A
.	16f	.	.
8dd	16b-	8f	8B-
.	16f	.	.
=72	=72	=72	=72
8dd	8b-	8f	16F
.	.	.	16E
8cc	8a	16F	16F
.	.	16g	16E-
8r	8r	16f	16D
.	.	16e-	16C
=73	=73	=73	=73
8ff	4.r	4d	4BB-
8b-	.	.	.
8cc	.	8r	8r
=74	=74	=74	=74
8dd	8b-	8f	8B-
8cc	8a	8F	8F
8r	8r	8r	8r
=75	=75	=75	=75
8ff	4.r	4.r	4.r
8cc	.	.	.
8dd	.	.	.
=76	=76	=76	=76
8ee-	8cc	8a	8F
8dd	8b-	8b-	8BB-
8r	8r	8r	8r
=77	=77	=77	=77
4.gg	16r	4.e-	4.E-
.	16b-	.	.
.	16a	.	.
.	16b-	.	.
.	16cc	.	.
.	16b-	.	.
=78	=78	=78	=78
8ff	16b-	8d	8D
.	16f	.	.
8aa	16ee-	8c	8C
.	16f	.	.
8bb-	16dd	8B-	8BB-
.	16ff	.	.
=79	=79	=79	=79
8gg	8ee-	16B-	8E-
.	.	16g	.
16ff	16dd	8f	8F
16ee-	16cc	.	.
16dd	16b-	8f	8FF
16cc	16a	.	.
=80	=80	=80	=80
4b-	4b-	4f	8BB-
.	.	.	8B-
8r	8r	8r	8r
=81	=81	=81	=81
4.dd	16r	4.f	4.A-
.	16b-	.	.
.	16a	.	.
.	16b-	.	.
.	16cc	.	.
.	16b-	.	.
=82	=82	=82	=82
8ee-	16r	8g	4.G
.	16B-	.	.
8gg	16A	8b-	.
.	16B-	.	.
8ee-	16c	8g	.
.	16B-	.	.
=83	=83	=83	=83
4.ee	16r	4.g	4.B-
.	16cc	.	.
.	16b	.	.
.	16cc	.	.
.	16dd	.	.
.	16cc	.	.
=84	=84	=84	=84
8ff	16r	8a	4.A
.	16c	.	.
8aa	16B	8cc	.
.	16c	.	.
8ff	16d	8a	.
.	16c	.	.
=85	=85	=85	=85
4.aa	16r	4.c	4.E-
.	16ff	.	.
.	16ee	.	.
.	16ff	.	.
.	16gg	.	.
.	16ff	.	.
=86	=86	=86	=86
8bb-	16r	8d	4.D
.	16f	.	.
8ddd	16e	8f	.
.	16f	.	.
8bb-	16g	8d	.
.	16f	.	.
=87	=87	=87	=87
8eee-	8e-	4c	8C
8ee-	8g	.	8c
8ee-	16a	8B-	8B-
.	16b-	.	.
=88	=88	=88	=88
16ee-	16cc	8A	8A
16gg	16ee-	.	.
16ff	16dd	8f	8AA
16ee-	16cc	.	.
8dd	16b-	8f	8BB-
.	16f	.	.
=89	=89	=89	=89
8cc	16g	16r	8E-
.	16e-	16g	.
8b-	8d	8f	8F
8a	8c	8F	8FF
=90	=90	=90	=90
16b-	4d	4F	4BB-
16bb-	.	.	.
16aa	.	.	.
16gg	.	.	.
16ff	8r	8r	8r
16ee-	.	.	.
=91	=91	=91	=91
16dd	4.r	4.r	4.r
16cc	.	.	.
16b-	.	.	.
16a	.	.	.
16g	.	.	.
16f	.	.	.
=92	=92	=92	=92
4e-	4c	4A	4FF#
8d	8B-	8B-	8GG
=93	=93	=93	=93
8dd	8b-	8G	8BB-
8ee-	8cc	8g	8EE-
8cc	8a	8f	8FF
=94	=94	=94	=94
8b-	8b-	8f	4BB-
8r	8r	8r	.
8bb-	8b-	8f	8r
=95	=95	=95	=95
4ff	4f	4d	4.B-
8dd	8d	8B-	.
=96	=96	=96	=96
4b-	4B-	4D	4.BB-
8dd	8d	8F	.
=97	=97	=97	=97
8cc	8c	8A	8F
8dd	8d	8B-	8F
8ee-	8e-	8c	8F
=98	=98	=98	=98
8dd	8d	8B-	4.BB-
8r	8r	8r	.
8bb-	8b-	8f	.
=99	=99	=99	=99
4ff	4f	4d	4.B-
8dd	8d	8B-	.
=100	=100	=100	=100
4b-	4B-	4D	4.BB-
8dd	8d	8F	.
=101	=101	=101	=101
8cc	8c	8E-	8FF
8b-	8B-	8D	8FF
8a	8A	8C	8FF
=102	=102	=102	=102
8b-	8B-	8D	4BB-
8r	8r	8r	.
8bb-	8b-	8f	8r
=103	=103	=103	=103
8ff	8f	8d	8BB-
8ff	8f	8d	8BB-
8dd	8d	8B-	8BB-
=104	=104	=104	=104
8b-	8B-	8F	8BB-
8b-	8B-	8F	8BB-
8dd	8d	8B-	8BB-
=105	=105	=105	=105
8cc	8c	8A	8FF
8dd	8d	8B-	8FF
8ee-	8e-	8c	8FF
=106	=106	=106	=106
8dd	8d	8B-	8BB-
8r	8r	8r	8BB-
8bb-	8b-	8f	8BB-
=107	=107	=107	=107
8ff	8f	8d	8BB-
8ff	8f	8d	8BB-
8dd	8d	8B-	8BB-
=108	=108	=108	=108
8b-	8B-	8F	8BB-
8b-	8d	8F	8BB-
8dd	8f	8B-	8BB-
=109	=109	=109	=109
8cc	8e-	8c	8FF
8b-	8d	8B-	8FF
8a	8c	8A	8FF
=110	=110	=110	=110
4bb- 4b- 4d	4dd 4f 4B-	4b- 4f 4B-	4BB-
8r	8r	8r	8r
==	==	==	==
*-	*-	*-	*-
!!!RWG1: This file contains only pitch and duration data.
!!!RWG2: Transposing instruments are not transposed.
!!!RWG3: Spines may have incompatible meters.
!!!RWG4: Durations of rests and tied notes may be interpreted.
!!!RWG: Key is interpreted using the Humdrum key tool.
!!!AFT: stage1
!!!END: 1997/04/15
!!format changes:
!!content changes:
!!public access: complete
!!!KEY: 66022771
!!!EMD: Converted from MuseData to Humdrum Dec 16, 2000, by Andreas Kornstaedt using muse2kern.
